!!!!SEGMENT: pl-wnifc--6740-n_studzinski-wincenty--kantata-w-dniu-uroczystosci-imienin.krn
!!!cenid: 18xx:4014
!!!COM: Studziński, Wincenty
!!!COM-rismID: pe41023091
!!!CDT: 1815/03/30-1854/07/15
!!!CNT: Polish
!!!OTL: Kantata w dniu uroczystości imienin
!!!PDT: 1842
!!!AGN:
!!!SMS-siglum: PL-Wnifc
!!!SMS-shelfmark: 6740/n
!!!SMS-shelfwork: W
!!!SMS-variant:
!!!SMS-altvar:
!!!NIFC-rismSourceID: 1001157817
!!!NIFC-rismChildID: 1001157817
!!!NIFC-islandoraID: nifc:213497
!!!URL-pdf-islandora: https://repozytorium.nifc.pl/islandora/object/nifc%3A213497/datastream/PDF/view
!!!URL-scan: https://polish.musicsources.pl/pl/lokalizacje/galeria/rekopisy/6169 @EN{Scan on Polish Music Sources Website} @PL{Skany w portalu Dziedzictwo Muzyki Polskiej w otwartym dostępie}
!!!ONB-nifc:
!!!AIN: 1 bass 2 piano 2 tenor
!!!key: G
**kern	**kern	**dynam	**kern	**text	**kern	**text	**dynam	**kern	**text	**dynam
*part5	*part4	*part4	*part3	*part3	*part2	*part2	*part2	*part1	*part1	*part1
*staff5	*staff4	*	*staff3	*staff3	*staff2	*staff2	*	*staff1	*staff1	*
*I"Piano=forte,	*I"Piano=forte,	*	*I"Basso	*	*I"Tenore 2 do	*	*	*I"Tenore 1re	*	*
*I'pf	*I'pf	*	*I'B	*	*I'T 2	*	*	*I'T 1	*	*
*ICklav	*ICklav	*	*ICvox	*	*ICvox	*	*	*ICvox	*	*
*Ipiano	*Ipiano	*	*Ibass	*	*Itenor	*	*	*Itenor	*	*
*clefF4	*clefG2	*	*clefF4	*	*clefGv2	*	*	*clefGv2	*	*
*k[f#]	*k[f#]	*	*k[f#]	*	*k[f#]	*	*	*k[f#]	*	*
*G:	*G:	*	*G:	*	*G:	*	*	*G:	*	*
*M4/4	*M4/4	*	*M4/4	*	*M4/4	*	*	*M4/4	*	*
*met(c)	*met(c)	*	*met(c)	*	*met(c)	*	*	*met(c)	*	*
=1	=1	=1	=1	=1	=1	=1	=1	=1	=1	=1
!	!LO:TX:a:B:t=Moderato,	!	!	!	!LO:TX:t=P:problem:tenor zapisany bez 8va b	!	!	!LO:TX:t=P:problem:tenor zapisany bez 8va b 	!	!
!	!	!	!	!	! 	!	!	!LO:TX:a:B:t=Moderato	!	!
(<4.GG/ (<4.G	2b\ 2dd 2gg	mf	1ryy	.	1ryy	.	.	1ryy	.	.
16FF#/LL 16F#	.	.	.	.	.	.	.	.	.	.
16EE/JJ) 16E)	.	.	.	.	.	.	.	.	.	.
2DD#X/ 2D#X	2b\ 2ff# 2bb	.	.	.	.	.	.	.	.	.
=2	=2	=2	=2	=2	=2	=2	=2	=2	=2	=2
(>4.EE/ 4.E	2g\ 2b 2ee	.	1ryy	.	1ryy	.	.	1ryy	.	.
16DDn/LL 16Dn	.	.	.	.	.	.	.	.	.	.
16CC/JJ 16C	.	.	.	.	.	.	.	.	.	.
2BBB/) 2BB	2g\ 2dd 2gg	.	.	.	.	.	.	.	.	.
=3	=3	=3	=3	=3	=3	=3	=3	=3	=3	=3
(>4.CC/ 4.C	2e/ 2g 2cc	.	1ryy	.	1ryy	.	.	1ryy	.	.
16BBB/LL 16BB	.	.	.	.	.	.	.	.	.	.
16AAA/JJ 16AA	.	.	.	.	.	.	.	.	.	.
2GGG#X/) 2GG#X	2e/ 2b 2ee	.	.	.	.	.	.	.	.	.
!!LO:LB:g=original	!	!	!	!	!	!	!	!	!	!
=4	=4	=4	=4	=4	=4	=4	=4	=4	=4	=4
4AAA/ 4AA	4c/ 4e 4a	.	1ryy	.	1ryy	.	.	1ryy	.	.
4CC/ 4C	4a\ 4ee 4aa	.	.	.	.	.	.	.	.	.
4BBB/ 4BB	4b\ 4ee 4gg#X 4bb	.	.	.	.	.	.	.	.	.
4AAA/ 4AA	4cc\ 4ee 4aa 4ccc	.	.	.	.	.	.	.	.	.
=5	=5	=5	=5	=5	=5	=5	=5	=5	=5	=5
8DD\L 8D	1dd 1ddd	.	1ryy	.	1ryy	.	.	1ryy	.	.
8D\ 8G 8B	.	.	.	.	.	.	.	.	.	.
8D\ 8G 8B	.	.	.	.	.	.	.	.	.	.
8D\J 8G 8B	.	.	.	.	.	.	.	.	.	.
*tremolo	*	*	*	*	*	*	*	*	*	*
8D\L 8G 8B	.	.	.	.	.	.	.	.	.	.
8D\ 8G 8B	.	.	.	.	.	.	.	.	.	.
8D\ 8G 8B	.	.	.	.	.	.	.	.	.	.
8D\J 8G 8B	.	.	.	.	.	.	.	.	.	.
=6	=6	=6	=6	=6	=6	=6	=6	=6	=6	=6
8DD\L 8D	1ee 1eee	.	1ryy	.	1ryy	.	.	1ryy	.	.
8D\ 8G#X 8B	.	.	.	.	.	.	.	.	.	.
8D\ 8G# 8B	.	.	.	.	.	.	.	.	.	.
8D\J 8G# 8B	.	.	.	.	.	.	.	.	.	.
8D\L 8G# 8B	.	.	.	.	.	.	.	.	.	.
8D\ 8G# 8B	.	.	.	.	.	.	.	.	.	.
8D\ 8G# 8B	.	.	.	.	.	.	.	.	.	.
8D\J 8G# 8B	.	.	.	.	.	.	.	.	.	.
=7	=7	=7	=7	=7	=7	=7	=7	=7	=7	=7
1D 1A 1c	2.ff#\ 2.fff#	.	1ryy	.	1ryy	.	.	1ryy	.	.
.	4ee\ 4eee	.	.	.	.	.	.	.	.	.
!!LO:LB:g=original	!	!	!	!	!	!	!	!	!	!
=8	=8	=8	=8	=8	=8	=8	=8	=8	=8	=8
2D\ 2F# 2A	4dd\ 4ddd	.	1ryy	.	1ryy	.	.	1ryy	.	.
.	4cc\ 4ccc	.	.	.	.	.	.	.	.	.
2D\ 2A 2c	4e/ 4ee	.	.	.	.	.	.	.	.	.
.	4f#/ 4ff#	.	.	.	.	.	.	.	.	.
=9	=9	=9	=9	=9	=9	=9	=9	=9	=9	=9
8GG\L 8G	4g\ 4b 4gg	.	1ryy	.	1ryy	.	.	1ryy	.	.
16D\L 16G 16B	.	.	.	.	.	.	.	.	.	.
16D\JJ 16G 16B	.	.	.	.	.	.	.	.	.	.
*Xtremolo	*	*	*	*	*	*	*	*	*	*
8D\L 8G 8B	4r	.	.	.	.	.	.	.	.	.
8D\J 8G 8B	.	.	.	.	.	.	.	.	.	.
*tremolo	*	*	*	*	*	*	*	*	*	*
8D\L 8G 8B	4r	.	.	.	.	.	.	.	.	.
8D\ 8G 8B	.	.	.	.	.	.	.	.	.	.
8D\ 8G 8B	4dd\	.	.	.	.	.	.	.	.	.
8D\J 8G 8B	.	.	.	.	.	.	.	.	.	.
=10	=10	=10	=10	=10	=10	=10	=10	=10	=10	=10
*	*8va	*	*	*	*	*	*	*	*	*
4GG/ 4G	4gg/ 4bb	.	1ryy	.	1ryy	.	.	1ryy	.	.
4D\ 4G 4B	8.gg/L 8.bb	.	.	.	.	.	.	.	.	.
.	16gg/Jk 16bb	.	.	.	.	.	.	.	.	.
4DD/ 4D	8.ff#/L 8.aa	.	.	.	.	.	.	.	.	.
.	16gg/Jk 16bb	.	.	.	.	.	.	.	.	.
4D\ 4F# 4A	8.aa/L 8.ccc	.	.	.	.	.	.	.	.	.
.	16bb/Jk 16ddd	.	.	.	.	.	.	.	.	.
!!LO:LB:g=original	!	!	!	!	!	!	!	!	!	!
=11	=11	=11	=11	=11	=11	=11	=11	=11	=11	=11
8GG\L 8G	4ccc\ 4eee	.	1ryy	.	1ryy	.	.	1ryy	.	.
16D\L 16G 16B	.	.	.	.	.	.	.	.	.	.
16D\JJ 16G 16B	.	.	.	.	.	.	.	.	.	.
*Xtremolo	*	*	*	*	*	*	*	*	*	*
8D\L 8G 8B	8.bb\L 8.ddd	.	.	.	.	.	.	.	.	.
8D\J 8G 8B	.	.	.	.	.	.	.	.	.	.
.	16ccc\Jk 16eee	.	.	.	.	.	.	.	.	.
*tremolo	*	*	*	*	*	*	*	*	*	*
8D\L 8G 8B	4.bb\ 4.ddd	.	.	.	.	.	.	.	.	.
8D\ 8G 8B	.	.	.	.	.	.	.	.	.	.
8D\ 8G 8B	.	.	.	.	.	.	.	.	.	.
8D\J 8G 8B	8gg/ 8bb	.	.	.	.	.	.	.	.	.
=12	=12	=12	=12	=12	=12	=12	=12	=12	=12	=12
8DD\L 8D	4.ff#/ 4.ddd	.	1ryy	.	1ryy	.	.	1ryy	.	.
16D\L 16F# 16A	.	.	.	.	.	.	.	.	.	.
16D\JJ 16F# 16A	.	.	.	.	.	.	.	.	.	.
*Xtremolo	*	*	*	*	*	*	*	*	*	*
8D\L 8F# 8A	.	.	.	.	.	.	.	.	.	.
8D\J 8F# 8A	8ee/ 8ccc	.	.	.	.	.	.	.	.	.
*rep	*	*	*	*	*	*	*	*	*	*
8D\L 8F# 8A	8dd/L 8bb	.	.	.	.	.	.	.	.	.
8D\J 8F# 8A	8ee/J 8ccc	.	.	.	.	.	.	.	.	.
8D\L 8F# 8A	8cc/L 8aa	.	.	.	.	.	.	.	.	.
8D\J 8F# 8A	8dd/J 8bb	.	.	.	.	.	.	.	.	.
*Xrep	*	*	*	*	*	*	*	*	*	*
=13	=13	=13	=13	=13	=13	=13	=13	=13	=13	=13
8GG\L 8G	(2btt/ 2gg	.	1ryy	.	1ryy	.	.	1ryy	.	.
16D\L 16G 16B	.	.	.	.	.	.	.	.	.	.
16D\JJ 16G 16B	.	.	.	.	.	.	.	.	.	.
8D\L 8G 8B	.	.	.	.	.	.	.	.	.	.
8D\J 8G 8B	.	.	.	.	.	.	.	.	.	.
.	16qqff#/LL	.	.	.	.	.	.	.	.	.
.	16qqgg/JJ)	.	.	.	.	.	.	.	.	.
8DD\L 8D	4ff#/ 4aa	.	.	.	.	.	.	.	.	.
16D\L 16F# 16A	.	.	.	.	.	.	.	.	.	.
16D\JJ 16F# 16A	.	.	.	.	.	.	.	.	.	.
8D\L 8F# 8A	4dd/ 4ddd	.	.	.	.	.	.	.	.	.
8D\J 8F# 8A	.	.	.	.	.	.	.	.	.	.
!!LO:LB:g=original	!	!	!	!	!	!	!	!	!	!
=14	=14	=14	=14	=14	=14	=14	=14	=14	=14	=14
4GG/ 4G	4gg/ 4bb	.	1ryy	.	1ryy	.	.	1ryy	.	.
4D\ 4G 4B	8.gg/L 8.bb	.	.	.	.	.	.	.	.	.
.	16gg/Jk 16bb	.	.	.	.	.	.	.	.	.
4DD/ 4D	8.ff#/L 8.aa	.	.	.	.	.	.	.	.	.
.	16gg/Jk 16bb	.	.	.	.	.	.	.	.	.
4D\ 4F# 4A	8.aa/L 8.ccc	.	.	.	.	.	.	.	.	.
.	16bb/Jk 16ddd	.	.	.	.	.	.	.	.	.
=15	=15	=15	=15	=15	=15	=15	=15	=15	=15	=15
8GG\L 8G	4ccc\ 4eee	.	1ryy	.	1ryy	.	.	1ryy	.	.
16D\L 16G 16B	.	.	.	.	.	.	.	.	.	.
16D\JJ 16G	.	.	.	.	.	.	.	.	.	.
8D\L 8G 8B	8.bb\L 8.ddd	.	.	.	.	.	.	.	.	.
!LO:TX:t=P:problem: wydrapany akord	!	!	!	!	!	!	!	!	!	!
8D\J 8G 8B	.	.	.	.	.	.	.	.	.	.
!	!LO:TX:t=P:problem: wydrapany akord	!	!	!	!	!	!	!	!	!
.	16ccc\Jk 16eee	.	.	.	.	.	.	.	.	.
*tremolo	*	*	*	*	*	*	*	*	*	*
8D\L 8G 8B	4.bb\ 4.ddd	.	.	.	.	.	.	.	.	.
8D\ 8G 8B	.	.	.	.	.	.	.	.	.	.
8D\ 8G 8B	.	.	.	.	.	.	.	.	.	.
8D\J 8G 8B	8aa\ 8ccc	.	.	.	.	.	.	.	.	.
=16	=16	=16	=16	=16	=16	=16	=16	=16	=16	=16
4GG/ 4G	4gg/ 4bb	.	1ryy	.	1ryy	.	.	1ryy	.	.
4EE/ 4E	4ee\ 4gg#X 4bb 4eee	.	.	.	.	.	.	.	.	.
4AA/ 4A	4ee/ 4aa 4ccc	.	.	.	.	.	.	.	.	.
!	!LO:TX:t=P:problem:kreska taktowa jako Segno	!	!	!	!	!	!	!	!	!
4DD/ 4D	4dd/ 4ff# 4aa 4ddd	.	.	.	.	.	.	.	.	.
*	*X8va	*	*	*	*	*	*	*	*	*
!!LO:PB:g=original	!	!	!	!	!	!	!	!	!	!
=17!|:	=17!|:	=17!|:	=17!|:	=17!|:	=17!|:	=17!|:	=17!|:	=17!|:	=17!|:	=17!|:
4GG/ 4G	8b\ 8dd 8gg	.	1ryy	.	1ryy	.	.	1r	.	.
.	8B/L 8d 8g	.	.	.	.	.	.	.	.	.
!	!	!LO:DY:b:t=p.	!	!	!	!	!	!	!	!
4r	8B/J 8d 8g	p	.	.	.	.	.	.	.	.
*	*tremolo	*	*	*	*	*	*	*	*	*
!	!LO:TX:t=P:problem: błąd wyświetlania VHV	!	!	!	!	!	!	!	!	!
.	8B/L 8d 8g	.	.	.	.	.	.	.	.	.
2r	8B/ 8d 8g	.	.	.	.	.	.	.	.	.
.	8B/ 8d 8g	.	.	.	.	.	.	.	.	.
.	8B/ 8d 8g	.	.	.	.	.	.	.	.	.
.	8B/J 8d 8g	.	.	.	.	.	.	.	.	.
=18	=18	=18	=18	=18	=18	=18	=18	=18	=18	=18
!	!	!	!	!	!	!	!	!LO:TX:a:t=Solo=	!	!
4GG/ 4G	8r	.	1ryy	.	1ryy	.	.	4B\	Za-	.
*	*Xtremolo	*	*	*	*	*	*	*	*	*
.	8d/L	.	.	.	.	.	.	.	.	.
4r	8B/ 8g	.	.	.	.	.	.	8B\	-bły-	.
.	8d/J	.	.	.	.	.	.	8B\	-sła	.
4DD/ 4D	8r	.	.	.	.	.	.	(8A\L	chwi-	.
.	8d/L	.	.	.	.	.	.	8B\J)	.	.
4r	8c/ 8f#	.	.	.	.	.	.	8c\	-la	.
.	8d/J	.	.	.	.	.	.	8d\	ra-	.
=19	=19	=19	=19	=19	=19	=19	=19	=19	=19	=19
4GG/ 4G	8r	.	1ryy	.	1ryy	.	.	(4.e\	-do-	.
.	8d/L	.	.	.	.	.	.	.	.	.
4r	8B/ 8g	.	.	.	.	.	.	.	.	.
.	8d/J	.	.	.	.	.	.	8d\)	.	.
*	*tremolo	*	*	*	*	*	*	*	*	*
2r	8B/L 8g	.	.	.	.	.	.	4B\	-ści	.
.	8d/	.	.	.	.	.	.	.	.	.
.	8B/ 8g	.	.	.	.	.	.	4r	.	.
.	8d/J	.	.	.	.	.	.	.	.	.
=20	=20	=20	=20	=20	=20	=20	=20	=20	=20	=20
4DD/ 4D	8r	.	1ryy	.	1ryy	.	.	4.d\	Dzie-	.
*	*Xtremolo	*	*	*	*	*	*	*	*	*
.	8d/L	.	.	.	.	.	.	.	.	.
4r	8A/ 8f#	.	.	.	.	.	.	.	.	.
.	8d/J	.	.	.	.	.	.	8c\	-ciom	.
4DD/ 4D	8r	.	.	.	.	.	.	8B\	pol-	.
.	8d/L	.	.	.	.	.	.	8c\	-skiej	.
4r	8A/ 8f#	.	.	.	.	.	.	8A\	mel-	.
.	8d/J	.	.	.	.	.	.	8B\	-po-	.
=21	=21	=21	=21	=21	=21	=21	=21	=21	=21	=21
4GG/ 4G	8r	.	1ryy	.	1ryy	.	.	2G/	-me-	.
.	8d/L	.	.	.	.	.	.	.	.	.
4r	8B/ 8g	.	.	.	.	.	.	.	.	.
.	8d/J	.	.	.	.	.	.	.	.	.
4DD/ 4D	8r	.	.	.	.	.	.	4A/	-ny	.
.	8d/L	.	.	.	.	.	.	.	.	.
4r	8A/ 8f#	.	.	.	.	.	.	4r	.	.
.	8d/J	.	.	.	.	.	.	.	.	.
=22	=22	=22	=22	=22	=22	=22	=22	=22	=22	=22
4GG/ 4G	8r	.	1ryy	.	1ryy	.	.	4.B\	Bo	.
.	8d/L	.	.	.	.	.	.	.	.	.
4r	8B/ 8g	.	.	.	.	.	.	.	.	.
.	8d/J	.	.	.	.	.	.	8B\	dziś	.
4DD/ 4D	8r	.	.	.	.	.	.	8A\	dzień	.
.	8d/L	.	.	.	.	.	.	8B\	U-	.
4r	8A/ 8f#	.	.	.	.	.	.	8c\	-ro-	.
.	8d/J	.	.	.	.	.	.	8d\	-czy-	.
!!LO:LB:g=original	!	!	!	!	!	!	!	!	!	!
=23	=23	=23	=23	=23	=23	=23	=23	=23	=23	=23
4GG/ 4G	8r	.	1ryy	.	1ryy	.	.	(4.e\	-sto-	.
.	8d/L	.	.	.	.	.	.	.	.	.
4r	8B/ 8g	.	.	.	.	.	.	.	.	.
.	8d/J	.	.	.	.	.	.	8d\)	.	.
*	*tremolo	*	*	*	*	*	*	*	*	*
2r	8B/L 8g	.	.	.	.	.	.	4B\	-ści	.
.	8d/	.	.	.	.	.	.	.	.	.
.	8B/ 8g	.	.	.	.	.	.	4r	.	.
.	8d/J	.	.	.	.	.	.	.	.	.
=24	=24	=24	=24	=24	=24	=24	=24	=24	=24	=24
4AA/ 4A	8r	.	1ryy	.	1ryy	.	.	4A/	Men-	.
*	*Xtremolo	*	*	*	*	*	*	*	*	*
.	8A/L	.	.	.	.	.	.	.	.	.
4r	8f#/ 8a	.	.	.	.	.	.	8A/	-to-	.
.	8A/J	.	.	.	.	.	.	8A/	-ra	.
4AAA/ 4AA	8e#X/L 8g#X	.	.	.	.	.	.	4B\	Kra-	.
.	8A/	.	.	.	.	.	.	.	.	.
4r	8en/ 8gn	.	.	.	.	.	.	8c#X\	-kow-	.
.	8A/J	.	.	.	.	.	.	8c#\	-skiej	.
=25	=25	=25	=25	=25	=25	=25	=25	=25	=25	=25
8DD\L 8D	4d/ 4f#	.	1ryy	.	1ryy	.	.	4d\	sce-	.
8D\ 8F# 8A	.	.	.	.	.	.	.	.	.	.
8D\ 8F# 8A	16aa\LL	.	.	.	.	.	.	4D/	-ny,	.
.	16dd\	.	.	.	.	.	.	.	.	.
8D\J 8F# 8A	16ff#\	.	.	.	.	.	.	.	.	.
.	16aa\JJ	.	.	.	.	.	.	.	.	.
8D\L 8F# 8A	4ddd\	.	.	.	.	.	.	4r	.	.
8D\	.	.	.	.	.	.	.	.	.	.
8D\	4r	.	.	.	.	.	.	4r	.	.
8D\J	.	.	.	.	.	.	.	.	.	.
=26	=26	=26	=26	=26	=26	=26	=26	=26	=26	=26
4DD/ 4D	8r	.	1ryy	.	1ryy	.	.	4.c\	Przyi-	.
.	8d/L	.	.	.	.	.	.	.	.	.
4r	8A/ 8f#	.	.	.	.	.	.	.	.	.
.	8d/J	.	.	.	.	.	.	8B\	-mij	.
4DD/ 4D	8r	.	.	.	.	.	.	8A\	Mis-	.
.	8d/L	.	.	.	.	.	.	8B\	-trzu	.
4r	8A/ 8f#	.	.	.	.	.	.	8c\	U-	.
.	8d/J	.	.	.	.	.	.	8d\	-ko-	.
=27	=27	=27	=27	=27	=27	=27	=27	=27	=27	=27
4GG/ 4G	8r	.	1ryy	.	1ryy	.	.	2B\	-cha-	.
.	8d/L	.	.	.	.	.	.	.	.	.
4r	8g/ 8b	.	.	.	.	.	.	.	.	.
.	8d/J	.	.	.	.	.	.	.	.	.
4GG/ 4G	8b/L 8dd	.	.	.	.	.	.	4d\	-ny	.
.	8d/	.	.	.	.	.	.	.	.	.
4r	8g/ 8b	.	.	.	.	.	.	4r	.	.
.	8d/J	.	.	.	.	.	.	.	.	.
!!LO:LB:g=original	!	!	!	!	!	!	!	!	!	!
=28	=28	=28	=28	=28	=28	=28	=28	=28	=28	=28
4DD/ 4D	8r	.	1ryy	.	1ryy	.	.	4.c\	Za	.
.	8d/L	.	.	.	.	.	.	.	.	.
4r	8A/ 8f#	.	.	.	.	.	.	.	.	.
.	8d/J	.	.	.	.	.	.	8B\	twe	.
4DD/ 4D	8r	.	.	.	.	.	.	8A\	sta-	.
.	8d/L	.	.	.	.	.	.	8B\	-ra-	.
4r	8A/ 8f#	.	.	.	.	.	.	8c\	-nia	.
.	8d/J	.	.	.	.	.	.	8c\	i	.
=29	=29	=29	=29	=29	=29	=29	=29	=29	=29	=29
4GG/ 4G	8r	.	1ryy	.	1ryy	.	.	2B\	tru-	.
.	8d/L	.	.	.	.	.	.	.	.	.
4r	8g/ 8b	.	.	.	.	.	.	.	.	.
.	8d/J	.	.	.	.	.	.	.	.	.
2D\ 2F# 2A	8f#/L 8a	.	.	.	.	.	.	4d\	-dy	.
.	8d/	.	.	.	.	.	.	.	.	.
.	8dd/	.	.	.	.	.	.	4r	.	.
.	8d/J	.	.	.	.	.	.	.	.	.
=30	=30	=30	=30	=30	=30	=30	=30	=30	=30	=30
4GG/ 4G	8r	.	1ryy	.	1ryy	.	.	4B\	Od	.
.	8g/L 8b	.	.	.	.	.	.	.	.	.
4r	8g/ 8b	.	.	.	.	.	.	8.B\	twej	.
.	8g/J 8b	.	.	.	.	.	.	.	.	.
.	.	.	.	.	.	.	.	16B\	dru-	.
2GG/ 2G	8f#/L 8a 8cc	.	.	.	.	.	.	4c\	-ży-	.
.	8f#/ 8a 8cc	.	.	.	.	.	.	.	.	.
.	8fn/ 8g 8b 8dd	.	.	.	.	.	.	8d\	-ny	.
.	8f/J 8g 8b 8dd	.	.	.	.	.	.	8d\	Ze-	.
=31	=31	=31	=31	=31	=31	=31	=31	=31	=31	=31
2BB\ 2c	8r	.	1ryy	.	1ryy	.	.	4e\	-bra-	.
.	8e/L 8g 8cc 8ee	.	.	.	.	.	.	.	.	.
.	8e/ 8g 8cc 8ee	.	.	.	.	.	.	4c\	-nej	.
.	8e/J 8g 8cc 8ee	.	.	.	.	.	.	.	.	.
4C/	4e/ 4g 4cc 4ee	.	.	.	.	.	.	4r	.	.
4r	4r	.	.	.	.	.	.	8e\	Pie-	.
.	.	.	.	.	.	.	.	8e\	-nia	.
=32	=32	=32	=32	=32	=32	=32	=32	=32	=32	=32
2D\	8r	.	1ryy	.	1ryy	.	.	4.d\	szcze-	.
.	8d/L	.	.	.	.	.	.	.	.	.
.	8b/ 8dd	.	.	.	.	.	.	.	.	.
.	8d/J	.	.	.	.	.	.	8d\	-re	.
2DD/ 2D	8a/L 8cc	.	.	.	.	.	.	(8c\L	bez	.
.	8d/	.	.	.	.	.	.	8B\	.	.
.	8f#/ 8a	.	.	.	.	.	.	8c\J)	.	.
.	8d/J	.	.	.	.	.	.	8d\	o-	.
=33	=33	=33	=33	=33	=33	=33	=33	=33	=33	=33
4GG/ 4G	4g/ 4b	.	1ryy	.	1ryy	.	.	8c\	-błu-	.
.	.	.	.	.	.	.	.	8B\	-dy	.
4DD/ 4D	4d/ 4dd	f	.	.	.	.	.	4r	.	.
4BBB/ 4BB	4B/ 4b	.	.	.	.	.	.	2r	.	.
4GGG/ 4GG	4G/ 4g	.	.	.	.	.	.	.	.	.
!!LO:PB:g=original	!	!	!	!	!	!	!	!	!	!
=34	=34	=34	=34	=34	=34	=34	=34	=34	=34	=34
*	*	*^	*	*	*	*	*	*	*	*
!	!	!	!LO:DY:b=2	!	!	!	!	!	!	!	!
!	!	!	!	!	!	!	!	!LO:DY:b	!	!	!
8DD\L 8D	4.cc\ 4.aa 4.ccc	f	f	1r	.	4.A/	Przyi-	f	4.c\	Przyi-	f
8D\	.	.	.	.	.	.	.	.	.	.	.
8F#\ 8A	.	.	.	.	.	.	.	.	.	.	.
!	!	!	!	!	!	!	!	!	!LO:TX:t=P:problem:tekst przesunięty	!	!
8D\J	8b\ 8gg 8bb	.	.	.	.	8G/	-mij	.	8B\	-mij	.
8DD\L 8D	8a\L 8ff# 8aa	.	.	.	.	8F#/	[[Mis-	.	8A\	Mis-	.
8D\	8b\ 8gg 8bb	.	.	.	.	8G/	-trzu	.	8B\	-trzu	.
8F#\ 8A	8cc\ 8aa 8ccc	.	.	.	.	8A/	U-	.	8c\	U-	.
8D\J	8dd\J 8bb 8ddd	.	.	.	.	8B/	-ko-	.	8d\	-ko-	.
*	*	*v	*v	*	*	*	*	*	*	*	*
=35	=35	=35	=35	=35	=35	=35	=35	=35	=35	=35
8GG\L 8G	2b\ 2gg 2bb	.	4r	.	2G/	-cha-	.	2B\	-cha-	.
8D\	.	.	.	.	.	.	.	.	.	.
8G\ 8B	.	.	8G\	Przyi-	.	.	.	.	.	.
!	!	!	!LO:TX:t=P:problem:tekst przesunięty	!	!	!	!	!	!	!
8D\J	.	.	8A\	-mij	.	.	.	.	.	.
8GG\L 8G	4dd\ 4bb 4ddd	.	8B\	mis-	4B\	-ny	.	4d\	-ny	.
8D\	.	.	8F#\	-trzu	.	.	.	.	.	.
8G\ 8B	4r	.	8G\	U-	4r	.	.	4r	.	.
8D\J	.	.	8E\	-ko-	.	.	.	.	.	.
=36	=36	=36	=36	=36	=36	=36	=36	=36	=36	=36
8DD\L 8D	4.cc\ 4.aa 4.ccc	.	8D\	-cha-	4.A/	Za	.	4.c\	Za	.
8D\	.	.	8D\	-ny	.	.	.	.	.	.
8F#\ 8A	.	.	4r	.	.	.	.	.	.	.
8D\J	8b\ 8gg 8bb	.	.	.	8G/	twe	.	8B\	twe	.
8DD\L 8D	8a\L 8ff# 8aa	.	2r	.	8F#/	sta-	.	8A\	sta-	.
8D\	8b\ 8gg 8bb	.	.	.	8G/	-ra-	.	8B\	-ra-	.
8F#\ 8A	8cc\ 8aa 8ccc	.	.	.	8A/	-nia	.	8c\	-nia	.
8D\J	8dd\J 8bb 8ddd	.	.	.	8B/	i	.	8d\	i	.
=37	=37	=37	=37	=37	=37	=37	=37	=37	=37	=37
8GG\L 8G	2b\ 2gg 2bb	.	8r	.	2G/	tru-	.	2B\	tru-	.
8D\	.	.	8G\	sta-	.	.	.	.	.	.
8G\ 8B	.	.	8G\	ra-	.	.	.	.	.	.
8D\J	.	.	8G\	-nia	.	.	.	.	.	.
!	!	!	!	!	!LO:TX:t=P:problem:skreślone b	!	!	!	!	!
8DD\L 8D	4dd\ 4ff# 4aa 4ddd	.	4D\	tru-	4F#\	-dy	.	4d\	-dy	.
8D\	.	.	.	.	.	.	.	.	.	.
8F#\ 8A	4r	.	4D\	-dy	4r	.	.	4r	.	.
8D\J	.	.	.	.	.	.	.	.	.	.
=38	=38	=38	=38	=38	=38	=38	=38	=38	=38	=38
8GG\L	4gg\ 4bb	.	4G\	od	4G/	od	.	4B\	od	.
8GG\	.	.	.	.	.	.	.	.	.	.
8G\	8.gg\L 8.bb	.	8.G\	twej	8.G/	twej	.	8.B\	twej	.
8GG\J	.	.	.	.	.	.	.	.	.	.
.	16gg\Jk 16bb	.	16G\	dru-	16G/	dru-	.	16B\	dru-	.
8F#X\L	4aa\ 4ccc	.	4GG/	-ży-	4A/	-ży-	.	4c\	-ży-	.
8FF#\	.	.	.	.	.	.	.	.	.	.
8Fn\	4bb\ 4ddd	.	8.GG/	-ny	8B\	-ny	.	8d\	-ny	.
8GG\J	.	.	.	.	8B\	ze-	.	8d\	ze-	.
.	.	.	16GG/	ze-	.	.	.	.	.	.
=39	=39	=39	=39	=39	=39	=39	=39	=39	=39	=39
4C/ 4E	4ee\ 4gg 4ccc 4eee	.	4C/	-bra-	4c\	-bra-	.	4e\	-bra-	.
4C/ 4E	4ee\ 4gg 4ccc 4eee	.	4C/	-nej	4E/	-nej	.	4c\	-nej	.
4CC/ 4C	4r	.	4r	.	4r	.	.	4r	.	.
*	*8va	*	*	*	*	*	*	*	*	*
4r	4ee/ 4gg 4ccc 4eee	.	8C/	Pie-	8c\	Pie-	.	8e\	Pie-	.
.	.	.	8C/	-nia	8c\	-nia	.	8e\	-nia	.
!!LO:LB:g=original	!	!	!	!	!	!	!	!	!	!
=40	=40	=40	=40	=40	=40	=40	=40	=40	=40	=40
*	*8va	*	*	*	*	*	*	*	*	*
4D\ 4G 4B 4d	4dd/ 4gg 4bb 4ddd	.	4D\	szcze-	4B\	szcze-	.	4d\	szcze-	.
4D\ 4G 4B 4d	4dd/ 4gg 4bb 4ddd	.	4D\	-re	4B\	-re	.	4d\	-re	.
4D\ 4A 4c 4d	4aa\ 4ccc 4ddd 4fff#	.	4D\	bez	4A/	bez	.	4f#\	bez	.
4D\ 4A 4c 4d	4aa\ 4ccc 4ddd 4fff#	.	4D\	ob-	4A/	O-	.	4f#\	O-	.
=41	=41	=41	=41	=41	=41	=41	=41	=41	=41	=41
!	!	!	!LO:TX:a:t="	!	!LO:TX:a:t="	!	!	!LO:TX:a:t="	!	!
4G\ 4B 4d	8gg\L 8bb 8ddd 8ggg	.	4G\	-łudy	8B\	-błudy	.	8g\	-błudy	.
.	8b\ 8bb	.	.	.	(8B\L	żyi	.	(8B\L	żyi	.
4GG/ 4BB 4D 4G	8cc\ 8ccc	.	4r	.	8c\J)	.	.	8c\J)	.	.
.	8dd\J 8ddd	.	.	.	8d\	nam	.	8d\	nam	.
8EE/L 8E	2ee/ 2gg#X 2bb 2eee	.	8r	.	8e\	dłu-	.	8e\	dłu-	.
8EE/ 8E	.	.	(8E\L	żyi	8e\	-go	.	8e\	-go	.
8FF#/ 8F#	.	.	8F#\J)	.	4r	.	.	4r	.	.
8GG#X/J 8G#X	.	.	8G#X\	nam	.	.	.	.	.	.
=42	=42	=42	=42	=42	=42	=42	=42	=42	=42	=42
4AA/ 4A	8ee/L 8aa 8ccc	.	8A\	dłu-	8r	.	.	8r	.	.
.	8a/ 8aa	.	8A\	-go	(8A\L	żyi	.	(8A\L	żyi	.
4AA/ 4C 4E 4A	8b/ 8bb	.	4r	.	8B\J)	.	.	8B\J)	.	.
.	8cc/J 8ccc	.	.	.	8c\	nam	.	8c\	nam	.
8DD/L 8D	2dd/ 2ff# 2aa 2ddd	.	8r	.	8d\	dłu-	.	8d\	dłu-	.
8DD/ 8D	.	.	(8D\L	żyi	8d\	-go	.	8d\	-go	.
8EE/ 8E	.	.	8E\J)	.	4r	.	.	4r	.	.
8FF#/J 8F#	.	.	8F#\	nam	.	.	.	.	.	.
=43	=43	=43	=43	=43	=43	=43	=43	=43	=43	=43
4GG/ 4G	4b/ 4dd 4gg 4bb	.	8G\	dłu-	4r	.	.	4r	.	.
.	.	.	8G\	-go	.	.	.	.	.	.
4r	4r	.	4r	.	4r	.	.	4r	.	.
*	*tremolo	*	*	*	*	*	*	*	*	*
4CC/ 4C	16gg\LL 16ccc 16eee	.	4.C/	żyi	4.c\	żyi	.	4.e\	żyi	.
.	16ee\	.	.	.	.	.	.	.	.	.
.	16gg\ 16ccc 16eee	.	.	.	.	.	.	.	.	.
.	16ee\	.	.	.	.	.	.	.	.	.
4C\ 4E 4G 4c	16gg\ 16ccc 16eee	.	.	.	.	.	.	.	.	.
.	16ee\	.	.	.	.	.	.	.	.	.
.	16gg\ 16ccc 16eee	.	8C/	nam	8c\	nam	.	8e\	nam	.
.	16ee\JJ	.	.	.	.	.	.	.	.	.
=44	=44	=44	=44	=44	=44	=44	=44	=44	=44	=44
4DD/ 4D	16gg\LL 16bb 16ddd	.	4.D\	dłu-	4.B\	dłu-	.	4.d\	dłu-	.
.	16dd\	.	.	.	.	.	.	.	.	.
.	16gg\ 16bb 16ddd	.	.	.	.	.	.	.	.	.
.	16dd\	.	.	.	.	.	.	.	.	.
4D\ 4G 4B	16gg\ 16bb 16ddd	.	.	.	.	.	.	.	.	.
.	16dd\	.	.	.	.	.	.	.	.	.
.	16gg\ 16bb 16ddd	.	8D\	-go	8B\	-go	.	8d\	-go	.
.	16dd\JJ	.	.	.	.	.	.	.	.	.
4DD/ 4D	16ccc\LL 16ddd 16fff#	.	4.D\	żyi	4.c\	żyi	.	4.f#\	żyi	.
.	16aa\	.	.	.	.	.	.	.	.	.
.	16ccc\ 16ddd 16fff#	.	.	.	.	.	.	.	.	.
.	16aa\	.	.	.	.	.	.	.	.	.
4D\ 4F# 4A 4d	16ccc\ 16ddd 16fff#	.	.	.	.	.	.	.	.	.
.	16aa\	.	.	.	.	.	.	.	.	.
!	!	!	!	!	!LO:TX:t=P:problem: brak główki dla 8c\	!	!	!	!	!
.	16ccc\ 16ddd 16fff#	.	8D\	nam	8c\	nam]]	.	8f#\	nam	.
.	16aa\JJ	.	.	.	.	.	.	.	.	.
=45	=45	=45	=45	=45	=45	=45	=45	=45	=45	=45
8GG\L 8G	8gg\L 8bb 8ddd 8ggg	.	4GG/	żyi !....	4B\	żyi !....	.	4g\	żyi !....	.
*	*X8va	*	*	*	*	*	*	*	*	*
!	!LO:TX:b:i:t=_loco	!	!	!	!	!	!	!	!	!
8G\ 8B 8d	8g\ 8gg	.	.	.	.	.	.	.	.	.
8G\ 8B 8d	8f#\ 8ff#	.	4r	.	4r	.	.	4r	.	.
8G\J 8B 8d	8g\J 8gg	.	.	.	.	.	.	.	.	.
8G\L 8c 8e	8e\L 8ee	.	2r	.	2r	.	.	2r	.	.
8G\ 8c 8e	8f#\ 8ff#	.	.	.	.	.	.	.	.	.
8G\ 8c 8e	8g\ 8gg	.	.	.	.	.	.	.	.	.
8G\J 8c 8e	8a\J 8aa	.	.	.	.	.	.	.	.	.
!!LO:PB:g=original	!	!	!	!	!	!	!	!	!	!
=46	=46	=46	=46	=46	=46	=46	=46	=46	=46	=46
8GG\L 8G	8b\L 8bb	.	1ryy	.	1ryy	.	.	1ryy	.	.
8G\ 8B 8d	8g\ 8gg	.	.	.	.	.	.	.	.	.
8G\ 8B 8d	8f#\ 8ff#	.	.	.	.	.	.	.	.	.
8G\J 8B 8d	8g\J 8gg	.	.	.	.	.	.	.	.	.
*Xtremolo	*	*	*	*	*	*	*	*	*	*
8G\L 8c 8e	8e\L 8ee	.	.	.	.	.	.	.	.	.
8G\ 8c 8e	8f#\ 8ff#	.	.	.	.	.	.	.	.	.
8G\ 8c 8e	8g\ 8gg	.	.	.	.	.	.	.	.	.
8G\J 8c 8e	8a\J 8aa	.	.	.	.	.	.	.	.	.
=47	=47	=47	=47	=47	=47	=47	=47	=47	=47	=47
8G\L	8b\L 8bb	.	1ryy	.	1ryy	.	.	1ryy	.	.
8B\ 8d	8b\ 8bb	.	.	.	.	.	.	.	.	.
8G#X\	8cc\ 8ccc	.	.	.	.	.	.	.	.	.
8d\J 8fn	8dd\J 8ddd	.	.	.	.	.	.	.	.	.
8A\L	8dd\L 8ddd	.	.	.	.	.	.	.	.	.
8c\J 8e	8cc\ 8ccc	.	.	.	.	.	.	.	.	.
8C\L	8e\ 8ee	.	.	.	.	.	.	.	.	.
8E\J 8A	8a\J 8aa	.	.	.	.	.	.	.	.	.
=48	=48	=48	=48	=48	=48	=48	=48	=48	=48	=48
8DD\L 8D	8cc\L 8ccc	.	1ryy	.	1ryy	.	.	1ryy	.	.
8D\ 8G 8B	8b\ 8bb	.	.	.	.	.	.	.	.	.
8D\ 8G 8B	8d\ 8dd	.	.	.	.	.	.	.	.	.
8D\J 8G 8B	8g\J 8gg	.	.	.	.	.	.	.	.	.
8DD\L 8D	8b\L 8bb	.	.	.	.	.	.	.	.	.
8D\ 8A 8c	8a\ 8aa	.	.	.	.	.	.	.	.	.
8D\ 8A 8c	8e\ 8ee	.	.	.	.	.	.	.	.	.
8D\J 8A 8c	8f#\J 8ff#	.	.	.	.	.	.	.	.	.
!!LO:LB:g=original	!	!	!	!	!	!	!	!	!	!
=49	=49	=49	=49	=49	=49	=49	=49	=49	=49	=49
4E\ 4B	4g\ 4gg	.	1ryy	.	1ryy	.	.	1ryy	.	.
8.r	8.r	.	.	.	.	.	.	.	.	.
16D\ 16F# 16A 16d	16dd\ 16ff# 16aa 16ddd	ff	.	.	.	.	.	.	.	.
2D\ 2F# 2A 2d	2dd\ 2ff# 2aa 2ddd	.	.	.	.	.	.	.	.	.
=50	=50	=50	=50	=50	=50	=50	=50	=50	=50	=50
4G\ 4B	4dd\ 4gg 4bb	.	1ryy	.	1ryy	.	.	1ryy	.	.
8.r	8.r	.	.	.	.	.	.	.	.	.
16D\ 16F# 16A 16d	16dd\ 16ff# 16aa 16ddd	.	.	.	.	.	.	.	.	.
!LO:TX:a:t=Dal Segno 3 razy._	!	!	!	!	!	!	!	!	!	!
2D\ 2F# 2A 2d	2dd\ 2ff# 2aa 2ddd	.	.	.	.	.	.	.	.	.
!!LO:LB:g=original	!	!	!	!	!	!	!	!	!	!
=51:|!	=51:|!	=51:|!	=51:|!	=51:|!	=51:|!	=51:|!	=51:|!	=51:|!	=51:|!	=51:|!
*clefF4	*clefG2	*	*	*	*	*	*	*	*	*
*k[f#]	*k[f#]	*	*	*	*	*	*	*	*	*
*M4/4	*M4/4	*	*yyM4/4	*	*M4/4	*	*	*M4/4	*	*
*met(c)	*met(c)	*	*yymet(c)	*	*met(c)	*	*	*met(c)	*	*
!	!LO:TX:a:B:t=Coda	!	!	!	!	!	!	!	!	!
!	!LO:TX:b:t=Tromba Solo_	!	!	!	!	!	!	!	!	!
4GG/ 4G	8g/L	.	1ryy	.	1ryy	.	.	1ryy	.	.
.	16g/L	.	.	.	.	.	.	.	.	.
.	16g/JJ	.	.	.	.	.	.	.	.	.
*	*Xtremolo	*	*	*	*	*	*	*	*	*
4r	8g/L	.	.	.	.	.	.	.	.	.
.	8g/J	.	.	.	.	.	.	.	.	.
2r	8g/L	.	.	.	.	.	.	.	.	.
.	8d/	.	.	.	.	.	.	.	.	.
.	8g/	.	.	.	.	.	.	.	.	.
.	8d/J	.	.	.	.	.	.	.	.	.
=52	=52	=52	=52	=52	=52	=52	=52	=52	=52	=52
4GG/ 4BB 4D 4G	8g/L	.	1ryy	.	1ryy	.	.	1ryy	.	.
.	16g/L 16b	.	.	.	.	.	.	.	.	.
.	16g/JJ 16b	.	.	.	.	.	.	.	.	.
4r	8g/L 8b	.	.	.	.	.	.	.	.	.
.	8g/J 8b	.	.	.	.	.	.	.	.	.
2r	8g/L 8b	.	.	.	.	.	.	.	.	.
.	8d/ 8g	.	.	.	.	.	.	.	.	.
.	8g/ 8b	.	.	.	.	.	.	.	.	.
.	8d/J 8g	.	.	.	.	.	.	.	.	.
=53	=53	=53	=53	=53	=53	=53	=53	=53	=53	=53
4GG/ 4BB 4D 4G	8g/L 8b	.	1ryy	.	1ryy	.	.	1ryy	.	.
.	16b/L 16dd	.	.	.	.	.	.	.	.	.
.	16b/JJ 16dd	.	.	.	.	.	.	.	.	.
4r	8b/L 8dd	.	.	.	.	.	.	.	.	.
.	8b/J 8dd	.	.	.	.	.	.	.	.	.
2r	8b/L 8dd	.	.	.	.	.	.	.	.	.
.	8g/ 8b	.	.	.	.	.	.	.	.	.
.	8b/ 8dd	.	.	.	.	.	.	.	.	.
.	8g/J 8b	.	.	.	.	.	.	.	.	.
*	*	*	*	*	*clefF4	*	*	*	*	*
!!LO:LB:g=original	!	!	!	!	!	!	!	!	!	!
=54	=54	=54	=54	=54	=54	=54	=54	=54	=54	=54
!	!	!	!	!	!	!	!	!LO:TX:t=P:problem:brak tekstu?	!	!
!	!	!	!	!	!	!	!	!LO:TX:a:t=Tenori 1re 2do	!	!
4GG/ 4BB 4D 4G	4b\ 4dd	.	1ryy	.	1G	.	.	1B 1d 1g	.	.
4GG/ 4G	4g\ 4b 4dd 4gg	.	.	.	.	.	.	.	.	.
4DD/ 4D	4g\ 4b 4dd 4gg	.	.	.	.	.	.	.	.	.
4BBB/ 4BB	4g\ 4b 4dd 4gg	.	.	.	.	.	.	.	.	.
=55	=55	=55	=55	=55	=55	=55	=55	=55	=55	=55
4GGG/ 4GG	4g\ 4b 4dd 4gg	.	1ryy	.	4G\	.	.	4B\ 4d 4g	.	.
4r	4r	.	.	.	4r	.	.	4r	.	.
4GG/ 4G	4b\ 4dd 4gg 4bb	.	.	.	2r	.	.	2r	.	.
4r	4r	.	.	.	.	.	.	.	.	.
=56	=56	=56	=56	=56	=56	=56	=56	=56	=56	=56
4GGG/ 4GG	4g\ 4b 4dd 4gg	.	1ryy	.	1r	.	.	1r	.	.
4r	4r	.	.	.	.	.	.	.	.	.
4GG/ 4G	4b\ 4dd 4gg 4bb	.	.	.	.	.	.	.	.	.
4r	4r	.	.	.	.	.	.	.	.	.
=57	=57	=57	=57	=57	=57	=57	=57	=57	=57	=57
*	*	*^	*	*	*	*	*	*	*	*
!	!LO:TX:b:i:t=Fine_	!	!	!	!	!	!	!	!	!	!
1GGG; 1GG	1g; 1b 1dd 1gg	<	.	1ryy	.	1r;	.	.	1r;	.	.
.	.	[	>]	.	.	.	.	.	.	.	.
*	*	*v	*v	*	*	*	*	*	*	*	*
==	==	==	==	==	==	==	==	==	==	==
*-	*-	*-	*-	*-	*-	*-	*-	*-	*-	*-
!!!system-decoration: s1,s2,s3{(s4,s5)}
!!!RDF**kern: > = above
!!!RDF**kern: < = below
!!!ENC: Filip Voros
!!!END: 2022-08-14
!!!ENC: Jan Barakat
!!!END: 2022-09-14!!!YEC: Copyright 2022 Narodowy Instytut Fryderyka Chopina (https://polishscores.org)
!!!YEM: License CC-BY-4.0 (https://creativecommons.org/licenses/by/4.0)
